static/cards/FrenchDeck/cyberwave/card_diamonds_04.svg

<svg xmlns="http://www.w3.org/2000/svg" width="822" height="1122" fill="none" viewBox="0 0 822 1122"><rect width="822" height="1122" fill="#1a0033" rx="20"/><g fill="#b366ff" clip-path="url(#a)"><path d="M137.898 159q-2.944 0-2.944-2.944V138.52H87.978q-2.56 0-2.56-2.304v-.896q0-1.792 1.151-3.072L135.21 73.24q1.024-1.28 2.56-1.28h1.152q2.943 0 2.944 2.944v57.344h11.776q2.943 0 2.944 2.816v.896q0 1.408-.768 2.048-.64.512-2.176.512h-11.776v17.536q0 2.944-2.944 2.944zm-2.944-26.752V82.84l-40.833 49.408zM112.679 208.481c3.959-5.938 12.683-5.938 16.642 0l21.981 32.972a10 10 0 0 1 0 11.094l-21.981 32.972c-3.959 5.938-12.683 5.938-16.642 0l-21.981-32.972a10 10 0 0 1 0-11.094zM676.102 959q2.944 0 2.944 2.944v17.536h46.976q2.56 0 2.56 2.304v.896q0 1.793-1.152 3.072l-48.64 59.008c-.682.85-1.536 1.28-2.56 1.28h-1.152q-2.943 0-2.944-2.94v-57.348h-11.776q-2.943 0-2.944-2.816v-.896q0-1.408.768-2.048.64-.512 2.176-.512h11.776v-17.536q0-2.944 2.944-2.944zm2.944 26.752v49.408l40.832-49.408zM701.321 909.519c-3.959 5.938-12.683 5.938-16.642 0l-21.981-32.972a10 10 0 0 1 0-11.094l21.981-32.972c3.959-5.938 12.683-5.938 16.642 0l21.981 32.972a10 10 0 0 1 0 11.094z"/></g><path stroke="#b366ff" stroke-width="8" d="M406.008 605.699c2.375-3.562 7.609-3.562 9.984 0l21.982 32.973a6 6 0 0 1 0 6.656l-21.982 32.973c-2.375 3.562-7.609 3.562-9.984 0l-21.982-32.973a6 6 0 0 1 0-6.656zM574.008 443.699c2.375-3.562 7.609-3.562 9.984 0l21.982 32.973a6 6 0 0 1 0 6.656l-21.982 32.973c-2.375 3.562-7.609 3.562-9.984 0l-21.982-32.973a6 6 0 0 1 0-6.656zM238.008 443.699c2.375-3.562 7.609-3.562 9.984 0l21.982 32.973a6 6 0 0 1 0 6.656l-21.982 32.973c-2.375 3.562-7.609 3.562-9.984 0l-21.982-32.973a6 6 0 0 1 0-6.656zM406.008 443.699c2.375-3.562 7.609-3.562 9.984 0l21.982 32.973a6 6 0 0 1 0 6.656l-21.982 32.973c-2.375 3.562-7.609 3.562-9.984 0l-21.982-32.973a6 6 0 0 1 0-6.656z"/><defs><clipPath id="a"><path fill="#fff" d="M46 48h722v1022H46z"/></clipPath></defs></svg>

<svg width="822" height="1122" viewBox="0 0 822 1122" fill="none" xmlns="http://www.w3.org/2000/svg">
<rect width="822" height="1122" rx="20" fill="#1A0033"/>
<g clip-path="url(#clip0_31_629)">
<path d="M137.898 159C135.935 159 134.954 158.019 134.954 156.056V138.52H87.9775C86.2708 138.52 85.4175 137.752 85.4175 136.216V135.32C85.4175 134.125 85.8015 133.101 86.5695 132.248L135.21 73.24C135.892 72.3867 136.746 71.96 137.77 71.96H138.922C140.884 71.96 141.866 72.9413 141.866 74.904V132.248H153.642C155.604 132.248 156.586 133.187 156.586 135.064V135.96C156.586 136.899 156.33 137.581 155.818 138.008C155.391 138.349 154.666 138.52 153.642 138.52H141.866V156.056C141.866 158.019 140.884 159 138.922 159H137.898ZM134.954 132.248V82.84L94.1215 132.248H134.954Z" fill="#B366FF"/>
<path d="M112.679 208.481C116.638 202.543 125.362 202.543 129.321 208.481L151.302 241.453C153.541 244.812 153.541 249.188 151.302 252.547L129.321 285.519C125.362 291.457 116.638 291.457 112.679 285.519L90.698 252.547C88.4587 249.188 88.4587 244.812 90.698 241.453L112.679 208.481Z" fill="#B366FF"/>
<path d="M676.102 959C678.065 959 679.046 959.981 679.046 961.944V979.48H726.022C727.729 979.48 728.582 980.248 728.582 981.784V982.68C728.582 983.875 728.198 984.899 727.43 985.752L678.79 1044.76C678.108 1045.61 677.254 1046.04 676.23 1046.04H675.078C673.116 1046.04 672.134 1045.06 672.134 1043.1V985.752H660.358C658.396 985.752 657.414 984.813 657.414 982.936V982.04C657.414 981.101 657.67 980.419 658.182 979.992C658.609 979.651 659.334 979.48 660.358 979.48H672.134V961.944C672.134 959.981 673.116 959 675.078 959H676.102ZM679.046 985.752V1035.16L719.878 985.752H679.046Z" fill="#B366FF"/>
<path d="M701.321 909.519C697.362 915.457 688.638 915.457 684.679 909.519L662.698 876.547C660.459 873.188 660.459 868.812 662.698 865.453L684.679 832.481C688.638 826.543 697.362 826.543 701.321 832.481L723.302 865.453C725.541 868.812 725.541 873.188 723.302 876.547L701.321 909.519Z" fill="#B366FF"/>
</g>
<path d="M406.008 605.699C408.383 602.137 413.617 602.137 415.992 605.699L437.974 638.672C439.317 640.687 439.317 643.313 437.974 645.328L415.992 678.301C413.617 681.863 408.383 681.863 406.008 678.301L384.026 645.328C382.683 643.313 382.683 640.687 384.026 638.672L406.008 605.699Z" stroke="#B366FF" stroke-width="8"/>
<path d="M574.008 443.699C576.383 440.137 581.617 440.137 583.992 443.699L605.974 476.672C607.317 478.687 607.317 481.313 605.974 483.328L583.992 516.301C581.617 519.863 576.383 519.863 574.008 516.301L552.026 483.328C550.683 481.313 550.683 478.687 552.026 476.672L574.008 443.699Z" stroke="#B366FF" stroke-width="8"/>
<path d="M238.008 443.699C240.383 440.137 245.617 440.137 247.992 443.699L269.974 476.672C271.317 478.687 271.317 481.313 269.974 483.328L247.992 516.301C245.617 519.863 240.383 519.863 238.008 516.301L216.026 483.328C214.683 481.313 214.683 478.687 216.026 476.672L238.008 443.699Z" stroke="#B366FF" stroke-width="8"/>
<path d="M406.008 443.699C408.383 440.137 413.617 440.137 415.992 443.699L437.974 476.672C439.317 478.687 439.317 481.313 437.974 483.328L415.992 516.301C413.617 519.863 408.383 519.863 406.008 516.301L384.026 483.328C382.683 481.313 382.683 478.687 384.026 476.672L406.008 443.699Z" stroke="#B366FF" stroke-width="8"/>
<defs>
<clipPath id="clip0_31_629">
<rect width="722" height="1022" fill="white" transform="translate(46 48)"/>
</clipPath>
</defs>
</svg>
